src/assets/img/occupancy-full.svg

<?xml version="1.0" encoding="UTF-8"?>
<svg width="26px" height="16px" viewBox="0 0 26 16" version="1.1" xmlns="http://www.w3.org/2000/svg" xmlns:xlink="http://www.w3.org/1999/xlink">
    <!-- Generator: Sketch 63 (92445) - https://sketch.com -->
    <title>icon-occupancy-not accepting passengers</title>
    <desc>Created with Sketch.</desc>
    <g id="Assets" stroke="none" stroke-width="1" fill="none" fill-rule="evenodd">
        <g transform="translate(-1007.000000, -2055.000000)" fill="#D52923" fill-rule="nonzero" id="icon-occupancy-not-accepting-passengers">
            <path d="M1011.10839,2058.6129 C1011.68989,2058.6129 1012.16129,2059.09534 1012.16129,2059.69046 L1012.16129,2064.56209 C1012.16129,2065.15721 1011.68989,2065.63965 1011.10839,2065.63965 L1011.10839,2069.92245 C1011.10839,2070.51756 1010.63699,2071 1010.05548,2071 L1009.10581,2071 C1008.5243,2071 1008.0529,2070.51756 1008.0529,2069.92245 L1008.0529,2065.63965 C1007.4714,2065.63965 1007,2065.15721 1007,2064.56209 L1007,2059.69046 C1007,2059.09534 1007.4714,2058.6129 1008.0529,2058.6129 L1011.10839,2058.6129 Z M1017.81806,2058.6129 C1018.39957,2058.6129 1018.87097,2059.09534 1018.87097,2059.69046 L1018.87097,2064.56209 C1018.87097,2065.15721 1018.39957,2065.63965 1017.81806,2065.63965 L1017.81806,2069.92245 C1017.81806,2070.51756 1017.34666,2071 1016.76516,2071 L1015.81548,2071 C1015.23398,2071 1014.76258,2070.51756 1014.76258,2069.92245 L1014.76258,2065.63965 C1014.18108,2065.63965 1013.70968,2065.15721 1013.70968,2064.56209 L1013.70968,2059.69046 C1013.70968,2059.09534 1014.18108,2058.6129 1014.76258,2058.6129 L1017.81806,2058.6129 Z M1024.52774,2058.6129 C1025.10924,2058.6129 1025.58065,2059.09534 1025.58065,2059.69046 L1025.58065,2064.56209 C1025.58065,2065.15721 1025.10924,2065.63965 1024.52774,2065.63965 L1024.52774,2069.92245 C1024.52774,2070.51756 1024.05634,2071 1023.47484,2071 L1022.52516,2071 C1021.94366,2071 1021.47226,2070.51756 1021.47226,2069.92245 L1021.47226,2065.63965 C1020.89076,2065.63965 1020.41935,2065.15721 1020.41935,2064.56209 L1020.41935,2059.69046 C1020.41935,2059.09534 1020.89076,2058.6129 1021.47226,2058.6129 L1024.52774,2058.6129 Z M1031.23742,2058.6129 C1031.81892,2058.6129 1032.29032,2059.09534 1032.29032,2059.69046 L1032.29032,2064.56209 C1032.29032,2065.15721 1031.81892,2065.63965 1031.23742,2065.63965 L1031.23742,2069.92245 C1031.23742,2070.51756 1030.76602,2071 1030.18452,2071 L1029.23484,2071 C1028.65334,2071 1028.18194,2070.51756 1028.18194,2069.92245 L1028.18194,2065.63965 C1027.60043,2065.63965 1027.12903,2065.15721 1027.12903,2064.56209 L1027.12903,2059.69046 C1027.12903,2059.09534 1027.60043,2058.6129 1028.18194,2058.6129 L1031.23742,2058.6129 Z M1009.58065,2055 C1010.4358,2055 1011.12903,2055.69324 1011.12903,2056.54839 C1011.12903,2057.40354 1010.4358,2058.09677 1009.58065,2058.09677 C1008.72549,2058.09677 1008.03226,2057.40354 1008.03226,2056.54839 C1008.03226,2055.69324 1008.72549,2055 1009.58065,2055 Z M1016.29032,2055 C1017.14547,2055 1017.83871,2055.69324 1017.83871,2056.54839 C1017.83871,2057.40354 1017.14547,2058.09677 1016.29032,2058.09677 C1015.43517,2058.09677 1014.74194,2057.40354 1014.74194,2056.54839 C1014.74194,2055.69324 1015.43517,2055 1016.29032,2055 Z M1023,2055 C1023.85515,2055 1024.54839,2055.69324 1024.54839,2056.54839 C1024.54839,2057.40354 1023.85515,2058.09677 1023,2058.09677 C1022.14485,2058.09677 1021.45161,2057.40354 1021.45161,2056.54839 C1021.45161,2055.69324 1022.14485,2055 1023,2055 Z M1029.70968,2055 C1030.56483,2055 1031.25806,2055.69324 1031.25806,2056.54839 C1031.25806,2057.40354 1030.56483,2058.09677 1029.70968,2058.09677 C1028.85453,2058.09677 1028.16129,2057.40354 1028.16129,2056.54839 C1028.16129,2055.69324 1028.85453,2055 1029.70968,2055 Z"></path>
        </g>
    </g>
</svg>

<?xml version="1.0" encoding="utf-8"?>
<!-- Generator: Adobe Illustrator 24.3.0, SVG Export Plug-In . SVG Version: 6.00 Build 0)  -->
<svg version="1.1" id="Layer_1" xmlns="http://www.w3.org/2000/svg" xmlns:xlink="http://www.w3.org/1999/xlink" x="0px" y="0px"
	 viewBox="0 0 26 16" enable-background="new 0 0 26 16" xml:space="preserve">
<title>Full</title>
<desc>Created with Sketch.</desc>
<g id="Assets">
	<g id="icon-occupancy-not-accepting-passengers" transform="translate(-1007.000000, -2055.000000)">
		<path fill="#D52923" d="M1011.1,2058.6c0.6,0,1.1,0.5,1.1,1.1v4.9c0,0.6-0.5,1.1-1.1,1.1v4.3c0,0.6-0.5,1.1-1.1,1.1h-0.9
			c-0.6,0-1.1-0.5-1.1-1.1v-4.3c-0.6,0-1.1-0.5-1.1-1.1v-4.9c0-0.6,0.5-1.1,1.1-1.1H1011.1z M1017.8,2058.6c0.6,0,1.1,0.5,1.1,1.1
			v4.9c0,0.6-0.5,1.1-1.1,1.1v4.3c0,0.6-0.5,1.1-1.1,1.1h-0.9c-0.6,0-1.1-0.5-1.1-1.1v-4.3c-0.6,0-1.1-0.5-1.1-1.1v-4.9
			c0-0.6,0.5-1.1,1.1-1.1H1017.8z M1024.5,2058.6c0.6,0,1.1,0.5,1.1,1.1v4.9c0,0.6-0.5,1.1-1.1,1.1v4.3c0,0.6-0.5,1.1-1.1,1.1h-0.9
			c-0.6,0-1.1-0.5-1.1-1.1v-4.3c-0.6,0-1.1-0.5-1.1-1.1v-4.9c0-0.6,0.5-1.1,1.1-1.1H1024.5z M1031.2,2058.6c0.6,0,1.1,0.5,1.1,1.1
			v4.9c0,0.6-0.5,1.1-1.1,1.1v4.3c0,0.6-0.5,1.1-1.1,1.1h-0.9c-0.6,0-1.1-0.5-1.1-1.1v-4.3c-0.6,0-1.1-0.5-1.1-1.1v-4.9
			c0-0.6,0.5-1.1,1.1-1.1H1031.2z M1009.6,2055c0.9,0,1.5,0.7,1.5,1.5c0,0.9-0.7,1.5-1.5,1.5s-1.5-0.7-1.5-1.5
			C1008,2055.7,1008.7,2055,1009.6,2055z M1016.3,2055c0.9,0,1.5,0.7,1.5,1.5c0,0.9-0.7,1.5-1.5,1.5c-0.9,0-1.5-0.7-1.5-1.5
			C1014.7,2055.7,1015.4,2055,1016.3,2055z M1023,2055c0.9,0,1.5,0.7,1.5,1.5c0,0.9-0.7,1.5-1.5,1.5s-1.5-0.7-1.5-1.5
			C1021.5,2055.7,1022.1,2055,1023,2055z M1029.7,2055c0.9,0,1.5,0.7,1.5,1.5c0,0.9-0.7,1.5-1.5,1.5c-0.9,0-1.5-0.7-1.5-1.5
			C1028.2,2055.7,1028.9,2055,1029.7,2055z"/>
	</g>
</g>
</svg>
